build/security/FaceIDSolid.svg

<svg xmlns="http://www.w3.org/2000/svg" fill="none" viewBox="0 0 24 24" focusable="false"><path d="M0 0H24V24H0z"/><path fill="#74767B" fill-rule="evenodd" d="M5 2L19 2C20.6569 2 22 3.34315 22 5L22 19C22 20.6569 20.6569 22 19 22L5 22C3.34315 22 2 20.6569 2 19L2 5C2 3.34315 3.34315 2 5 2ZM7.5 8.01001C7.85898 8.01001 8.15 8.30102 8.15 8.66001L8.15 10.4076C8.15 10.7666 7.85898 11.0576 7.5 11.0576C7.14101 11.0576 6.85 10.7666 6.85 10.4076L6.85 8.66001C6.85 8.30102 7.14101 8.01001 7.5 8.01001ZM12.6502 8.66001C12.6502 8.30102 12.3592 8.01001 12.0002 8.01001C11.6412 8.01001 11.3502 8.30102 11.3502 8.66001L11.3502 11.8056C11.3502 12.3204 10.9422 12.7284 10.4274 12.7284L10.34 12.7284C9.98101 12.7284 9.69 13.0194 9.69 13.3784C9.69 13.7374 9.98101 14.0284 10.34 14.0284L10.4274 14.0284C11.6601 14.0284 12.6502 13.0384 12.6502 11.8056L12.6502 8.66001ZM16.013 16.1822C16.2586 15.9203 16.2453 15.509 15.9834 15.2634C15.7215 15.0179 15.3102 15.0312 15.0646 15.2931C14.5556 15.8361 13.5103 16.2967 12.3117 16.3667C11.1306 16.4356 9.93436 16.1168 9.09558 15.278C8.84174 15.0242 8.43018 15.0242 8.17634 15.278C7.9225 15.5319 7.9225 15.9434 8.17634 16.1973C9.34725 17.3682 10.9472 17.7485 12.3874 17.6645C13.8101 17.5815 15.2114 17.0373 16.013 16.1822ZM17.15 8.66001C17.15 8.30102 16.859 8.01001 16.5 8.01001C16.141 8.01001 15.85 8.30102 15.85 8.66001L15.85 10.4076C15.85 10.7666 16.141 11.0576 16.5 11.0576C16.859 11.0576 17.15 10.7666 17.15 10.4076L17.15 8.66001Z"/></svg>

<svg xmlns="http://www.w3.org/2000/svg" fill="none" viewBox="0 0 24 24" focusable="false"><path fill="#74767B" fill-rule="evenodd" d="M5 2h14c1.65 0 3 1.34 3 3v14c0 1.65-1.35 3-3 3H5c-1.66 0-3-1.35-3-3V5c0-1.66 1.34-3 3-3m2.5 6.01c.35 0 .65.29.65.65v1.74a.655.655 0 0 1-1.31 0V8.66c0-.36.3-.65.66-.65m5.15.65c0-.36-.3-.65-.65-.65-.36 0-.65.29-.65.65v3.14c0 .52-.41.92-.93.92h-.08c-.36 0-.66.29-.66.65s.3.65.66.65h.08c1.24 0 2.23-.99 2.23-2.22zm3.36 7.52c.24-.26.23-.68-.03-.92a.65.65 0 0 0-.92.03c-.51.54-1.55 1-2.75 1.07-1.18.07-2.38-.25-3.22-1.09a.66.66 0 0 0-.92 0c-.25.26-.25.67 0 .92 1.17 1.17 2.77 1.55 4.21 1.47 1.43-.08 2.83-.63 3.63-1.48m1.14-7.52c0-.36-.3-.65-.65-.65-.36 0-.65.29-.65.65v1.74c0 .36.29.65.65.65.35 0 .65-.29.65-.65z"/></svg>
